packages/core/src/svgs/ankr.svg

<svg width="24" height="24" viewBox="0 0 24 24" fill="none" xmlns="http://www.w3.org/2000/svg">
<g clip-path="url(#clip0_31_6007)">
<path d="M0 0H24V24H0V0Z" fill="#2075E8"/>
<path d="M12.8873 5.35708L17.3701 7.65851C17.6898 7.82171 17.9579 8.07032 18.1448 8.37673C18.3316 8.68313 18.4299 9.03533 18.4287 9.39422V10.2857H16.7144V9.39422C16.7144 9.28708 16.7144 9.17994 16.6158 9.1328L12.1287 6.89565C12.0868 6.87455 12.0406 6.86356 11.9937 6.86356C11.9468 6.86356 11.9006 6.87455 11.8587 6.89565L7.3844 9.12851C7.28583 9.17565 7.28583 9.2828 7.28583 9.38565V10.2857H5.57154V9.39422C5.5708 9.03544 5.66928 8.68343 5.8561 8.37711C6.04292 8.0708 6.31079 7.8221 6.63012 7.65851L11.113 5.35708C11.3875 5.21642 11.6916 5.14307 12.0001 5.14307C12.3086 5.14307 12.6127 5.21642 12.8873 5.35708ZM13.2858 11.9999C13.2858 11.2542 12.7373 10.7142 12.0001 10.7142C11.8303 10.7107 11.6616 10.7416 11.504 10.805C11.3464 10.8683 11.2033 10.9629 11.0832 11.083C10.9631 11.2031 10.8685 11.3462 10.8051 11.5038C10.7418 11.6614 10.7109 11.8301 10.7144 11.9999C10.7058 12.7371 11.2201 13.2771 12.0001 13.2857C12.7801 13.2942 13.2858 12.7457 13.2858 11.9999ZM16.6158 14.8714C16.7144 14.8199 16.7144 14.7128 16.7144 14.6057V13.7142H18.4287V14.6057C18.4299 14.9645 18.3316 15.3167 18.1448 15.6232C17.9579 15.9296 17.6898 16.1782 17.3701 16.3414L12.8915 18.6428C12.6162 18.7835 12.3114 18.8569 12.0023 18.8569C11.6931 18.8569 11.3883 18.7835 11.113 18.6428L6.63012 16.3414C6.31048 16.1782 6.04233 15.9296 5.85547 15.6232C5.6686 15.3167 5.57032 14.9645 5.57154 14.6057V13.7142H7.28583V14.6057C7.28583 14.7171 7.28583 14.8199 7.3844 14.8671L11.143 16.7142V14.7857C10.5205 14.6374 9.96791 14.2798 9.57778 13.7726C9.18765 13.2654 8.9837 12.6396 9.00012 11.9999C9.00012 10.3071 10.1915 8.99994 12.0001 8.99994C13.8087 8.99994 15.0001 10.2857 15.0001 11.9999C15.0001 13.4442 14.1473 14.4257 12.8573 14.7857V16.7142L16.6158 14.8714Z" fill="white"/>
</g>
<defs>
<clipPath id="clip0_31_6007">
<rect width="24" height="24" fill="white"/>
</clipPath>
</defs>
</svg>

<svg xmlns="http://www.w3.org/2000/svg" width="24" height="24" fill="none" viewBox="0 0 24 24"><g clip-path="url(#a)"><path fill="#2075E8" d="M0 0h24v24H0z"/><path fill="#fff" d="M12.887 5.357 17.37 7.66a1.94 1.94 0 0 1 1.059 1.735v.892h-1.715v-.892c0-.107 0-.214-.098-.261l-4.487-2.237a.3.3 0 0 0-.27 0L7.384 9.129c-.098.047-.098.154-.098.257v.9H5.572v-.892A1.95 1.95 0 0 1 6.63 7.66l4.483-2.302a1.95 1.95 0 0 1 1.774 0M13.286 12c0-.746-.549-1.286-1.286-1.286A1.26 1.26 0 0 0 10.714 12c-.008.737.506 1.277 1.286 1.286.78.008 1.286-.54 1.286-1.286m3.33 2.871c.098-.051.098-.158.098-.265v-.892h1.715v.892a1.94 1.94 0 0 1-1.059 1.735l-4.478 2.302a1.95 1.95 0 0 1-1.779 0L6.63 16.34a1.94 1.94 0 0 1-1.058-1.735v-.892h1.714v.892c0 .111 0 .214.098.261l3.759 1.847v-1.928A2.79 2.79 0 0 1 9 12c0-1.693 1.191-3 3-3s3 1.286 3 3c0 1.444-.853 2.426-2.143 2.786v1.928z"/></g><defs><clipPath id="a"><path fill="#fff" d="M0 0h24v24H0z"/></clipPath></defs></svg>
